X:12b
T:La marquise empoisonne (variante sur le mme thme)
R:Chanson
O:France
B:Le livre des Chansons (Henri Davenson) n12
Z:<anamnese@laposte.net> -- http://anamnese.fr.st
M:3/4
L:1/4
Q:1/4=120
K:C
G | G2 c | A2 G | c c e | g2 e | (d/4/c/4d/4) (e d) |c2 G |!
    G2 c | A2 G |c (c e)| g2 e | (d/4/c/4d/4) (e d) |c2 || c |!
    d2 e | c2 A | B2 c  | d/ e/ (fe/d/)| d2 c | 
    d2 e | (c B) A | B c e | d d2 | c3 |]!
W:Charmante Gabrielle, Perce de mille dards,
W:Quand la gloire m'appelle A la suite de Mars !
W:
W:Cruelle dpartie, Malheureux jour !
W:Que ne suis-je sans vie Ou sans amour !
